svgs/solid/tablet.svg

<svg xmlns="http://www.w3.org/2000/svg" viewBox="0 0 448 512"><!-- Font Awesome Pro 6.0.0-alpha2 by @fontawesome - https://fontawesome.com License - https://fontawesome.com/license (Commercial License) --><path d="M384 0H64C28.654 0 0 28.652 0 64V448C0 483.346 28.654 512 64 512H384C419.346 512 448 483.346 448 448V64C448 28.652 419.346 0 384 0ZM288 448C288 456.837 280.837 464 272 464H176C167.163 464 160 456.837 160 448V448C160 439.163 167.163 432 176 432H272C280.837 432 288 439.163 288 448V448Z"/></svg>

<svg xmlns="http://www.w3.org/2000/svg" viewBox="0 0 448 512"><!--! Font Awesome Pro 6.4.0 by @fontawesome - https://fontawesome.com License - https://fontawesome.com/license (Commercial License) Copyright 2023 Fonticons, Inc. --><path d="M64 0C28.7 0 0 28.7 0 64V448c0 35.3 28.7 64 64 64H384c35.3 0 64-28.7 64-64V64c0-35.3-28.7-64-64-64H64zM176 432h96c8.8 0 16 7.2 16 16s-7.2 16-16 16H176c-8.8 0-16-7.2-16-16s7.2-16 16-16z"/></svg>
